static/assets/images/icons/upward.svg

<svg width="256" height="256" viewBox="0 0 256 256" fill="none" xmlns="http://www.w3.org/2000/svg">
<path fill-rule="evenodd" clip-rule="evenodd" d="M140.789 214C137.782 224.786 120.881 225.508 116.98 215.012C116.375 213.386 116.013 211.56 116.013 209.518V74.0185L79.3419 105.541C76.9974 107.879 73.8175 109.192 70.5018 109.192C67.1861 109.192 64.0062 107.879 61.6617 105.541C59.3172 103.203 58 100.033 58 96.7265C58 93.4205 59.3172 90.2499 61.6617 87.9122L120.016 37.4243C125.378 32.7851 133.357 32.869 138.621 37.6197L194.338 87.9122C196.683 90.2499 198 93.4205 198 96.7265C198 100.033 196.683 103.203 194.338 105.541C191.994 107.879 188.814 109.192 185.498 109.192C182.183 109.192 179.003 107.879 176.658 105.541L141.391 74.0185V209.518C141.391 211.14 141.171 212.632 140.789 214Z" fill="black"/>
</svg>

<svg xmlns="http://www.w3.org/2000/svg" viewBox="0 0 256 256"><path fill-rule="evenodd" d="M140.789 214c-3.007 10.786-19.908 11.508-23.809 1.012a15.6 15.6 0 0 1-.967-5.494v-135.5l-36.671 31.523a12.52 12.52 0 0 1-8.84 3.651 12.52 12.52 0 0 1-8.84-3.651A12.45 12.45 0 0 1 58 96.727c0-3.306 1.317-6.477 3.662-8.815l58.354-50.488a14.05 14.05 0 0 1 18.605.196l55.717 50.292A12.45 12.45 0 0 1 198 96.726c0 3.307-1.317 6.477-3.662 8.815a12.52 12.52 0 0 1-8.84 3.651 12.52 12.52 0 0 1-8.84-3.651l-35.267-31.522v135.499c0 1.622-.22 3.114-.602 4.482" clip-rule="evenodd"/></svg>
